X:3177
T:Colección Feij\'oo: N\'umero 61
O:Galicia (Spain)
B:Libro Aires da Terra, de J.L. Calle
Z:Transcrito por Jos\'e J. Presedo
Z:Covertido de Midi a abc por Antonio-Nil
N:http://www.arrakis.es/~jpresedo/
M: 4/4
L: 1/8
Q:1/4=180
K:D % 2 sharps
z3A Bc de|dc Bc d2 GD|FA GE CE GB|AF DA Bc de|
dc Bc d2 GD|FA GE CE BA|D2 zA Bc de|dc Bc d2 GD|
FA GE CE GB|AF DA Bc de|dc Bc d2 GD|FA GE CE BA|
D2 AA GF FE|FA GF E2 BB|AG GF GB AG|F2 dd cB A2|
BB AG F2 GG|FE AF DE FE|D2 AA GF FE|FA GF E2 BB|
AG GF GB AG|F2 dd cB A2|BB AG F2 GG|FE AF DE FE|
D2 zA Bc de|dc Bc d2 GD|FA GE CE GB|AF DA Bc de|
dc Bc d2 GD|FA GE CE BA|D2 zA Bc de|dc Bc d2 GD|
FA GE CE GB|AF DA Bc de|dc Bc d2 GD|FA GE CE BA|
D2 AA GF FE|FA GF E2 BB|AG GF GB AG|F2 dd cB A2|
BB AG F2 GG|FE AF DE FE|D2 AA GF FE|FA GF E2 BB|
AG GF GB AG|F2 dd cB A2|BB AG F2 GG|FE AF DE FE|
D2 zA Bc de|dc Bc d2 GD|FA GE CE GB|AF DA Bc de|
dc Bc d2 GD|FA GE CE BA|D2 zA Bc de|dc Bc d2 GD|
FA GE CE GB|AF DA Bc de|dc Bc d2 GD|FA GE CE BA|
D2 


